!! Isochronous pitch passage.
!! Solo-line.
!! From J.S. Bach, Flute Partita, 2nd movement, measure 27ff.
!! flute
!! 3/4 meter
**kern	**metpos
*M3/4	*M3/4
*tb16	*tb16
=27	=27
16cc	1
16b	4
16a	3
16cc	4
16ff	2
16gg	4
16aa	3
16ff	4
16dd	2
16ee	4
16ff	3
16dd	4
=28	=28
16cc	1
16b	4
16a	3
16g	4
16ee	2
16ff	4
16gg	3
16ee	4
16cc	2
16dd	4
16ee	3
16cc	4
=29	=29
16a	1
16g	4
16f	3
16a	4
16dd	2
16ee	4
16ff	3
16gg	4
16aa	2
16bb	4
16ccc	3
16aa	4
=30	=30
16ff	1
16ee	4
16ff	3
16dd	4
16b	2
16a	4
16b	3
16g	4
16f	2
16e	4
16f	3
16d	4
=31	=31
16e	1
16cc	4
16gg	3
16gg	4
16e	2
16c	4
16gg	3
16cc	4
16aa	2
16cc	4
16bb-	3
16cc	4
=32	=32
16f	1
16cc	4
16aa	3
16ff	4
16ee	2
16dd	4
16cc	3
16b-	4
16aa	2
16gg	4
16ff	3
16e	4
=33	=33
16f#	1
16dd	4
16aa	3
16aa	4
16f#	2
16d	4
16aa	3
16dd	4
16bb	2
16dd	4
16ccc	3
16dd	4
=34	=34
16g	1
16dd	4
16bb	3
16gg	4
16ff	2
16ee	4
16dd	3
16cc	4
16b	2
16a	4
16g	3
16f	4
=35	=35
16e	1
16f	4
16g	3
16cc	4
16ee	2
16cc	4
16b	3
16cc	4
16g	2
16b	4
16cc	3
16ee	4
=36	=36
16f	1
16g	4
16a	3
16cc	4
16ee	2
16cc	4
16b	3
16cc	4
16a	2
16b	4
16cc	3
16ee	4
=37	=37
16g	1
16a	4
16b	3
16c	4
16ee	2
16cc	4
16b	3
16cc	4
16b	2
16cc	4
16dd	3
16ee	4
=38	=38
16a	1
16b	4
16cc	3
16ee	4
16ff	2
16aa	4
16ff	3
16ee	4
16dd	2
16ff	4
16dd	3
16cc	4
=39	=39
16b	1
16cc	4
16dd	3
16ff	4
16gg	2
16ddd	4
16bb	3
16aa	4
16gg	2
16bb	4
16gg	3
16ff	4
=40	=40
16ee	1
16gg	4
16ee	3
16dd	4
16cc	2
16ee	4
16cc	3
16b	4
16a	2
16cc	4
16a	3
16g	4
=41	=41
16f	1
16ee	4
16aa	3
16dd	4
16ee	2
16b	4
16cc	3
16f#	4
16g	2
16cc	4
16g	3
16b	4
=42	=42
*-	*-
